src/icons/file-shell.svg

<?xml version="1.0" encoding="UTF-8" standalone="no"?>
<svg
   version="1.2"
   viewBox="0 0 16 16"
   width="16"
   height="16"
   id="svg1"
   sodipodi:docname="shell.svg"
   inkscape:version="1.4 (e7c3feb100, 2024-10-09)"
   xmlns:inkscape="http://www.inkscape.org/namespaces/inkscape"
   xmlns:sodipodi="http://sodipodi.sourceforge.net/DTD/sodipodi-0.dtd"
   xmlns="http://www.w3.org/2000/svg"
   xmlns:svg="http://www.w3.org/2000/svg">
  <defs
     id="defs1" />
  <sodipodi:namedview
     id="namedview1"
     pagecolor="#505050"
     bordercolor="#eeeeee"
     borderopacity="1"
     inkscape:showpageshadow="0"
     inkscape:pageopacity="0"
     inkscape:pagecheckerboard="0"
     inkscape:deskcolor="#505050"
     inkscape:zoom="36.8125"
     inkscape:cx="8.0135823"
     inkscape:cy="8.0135823"
     inkscape:window-width="1326"
     inkscape:window-height="755"
     inkscape:window-x="1300"
     inkscape:window-y="52"
     inkscape:window-maximized="0"
     inkscape:current-layer="svg1" />
  <title
     id="title1">square-svg</title>
  <style
     id="style1">
		.s0 { fill: #8cc162 } 
		.s1 { fill: #000000 } 
	</style>
  <path
     id="path1"
     class="s0"
     d="M 6 2 C 4.6 2 3.9003906 2.0007814 3.4003906 2.3007812 C 2.9003906 2.5007813 2.5007814 2.9003906 2.3007812 3.4003906 C 2.0007814 3.9003906 2 4.6 2 6 L 2 10 C 2 11.4 2.0007814 12.099609 2.3007812 12.599609 C 2.5007813 13.099609 2.9003906 13.499219 3.4003906 13.699219 C 3.9003906 13.999219 4.6 14 6 14 L 10 14 C 11.4 14 12.099609 13.999219 12.599609 13.699219 C 13.099609 13.499219 13.499219 13.099609 13.699219 12.599609 C 13.999219 12.099609 14 11.4 14 10 L 14 6 C 14 4.6 13.999219 3.9003906 13.699219 3.4003906 C 13.499219 2.9003906 13.099609 2.5007814 12.599609 2.3007812 C 12.099609 2.0007813 11.4 2 10 2 L 6 2 z M 5.4003906 3.9003906 C 5.6003906 3.9003906 5.7670573 3.9333333 5.9003906 4 C 6.033724 4.1333333 6.0996094 4.3 6.0996094 4.5 L 6.0996094 4.9003906 C 6.366276 4.9003906 6.633724 4.9333333 6.9003906 5 C 7.1670573 5.0666667 7.3666667 5.1674479 7.5 5.3007812 C 7.7 5.4341146 7.8007814 5.6007813 7.8007812 5.8007812 C 7.8007812 6.0007813 7.7329427 6.167448 7.5996094 6.3007812 C 7.3996094 6.4341146 7.2 6.5 7 6.5 C 6.9333333 6.5 6.8325521 6.4670573 6.6992188 6.4003906 C 6.6325521 6.4003906 6.533724 6.3674479 6.4003906 6.3007812 C 6.2670573 6.3007813 6.1333333 6.2658854 6 6.1992188 C 5.8666667 6.1325521 5.6670573 6.0996094 5.4003906 6.0996094 L 5.1992188 6.0996094 C 5.0658854 6.0996094 4.9670573 6.1325521 4.9003906 6.1992188 C 4.833724 6.1992187 4.7658854 6.2341146 4.6992188 6.3007812 L 4.6992188 6.5 C 4.6992188 6.5666667 4.7341146 6.6325521 4.8007812 6.6992188 C 4.8674479 6.7658854 4.9992187 6.8007813 5.1992188 6.8007812 C 5.3325521 6.8674479 5.5341146 6.9003906 5.8007812 6.9003906 C 6.2007812 6.9670573 6.5670573 7.0658854 6.9003906 7.1992188 C 7.3003906 7.3325521 7.5658854 7.4992188 7.6992188 7.6992188 C 7.8992186 7.8992186 8 8.1996094 8 8.5996094 C 8 8.9329427 7.9341146 9.2003906 7.8007812 9.4003906 C 7.6007814 9.6670573 7.3333333 9.8666667 7 10 C 6.7333333 10.133333 6.4329427 10.234115 6.0996094 10.300781 L 6.0996094 10.599609 C 6.0996094 10.866276 6.033724 11.032943 5.9003906 11.099609 C 5.7670573 11.232943 5.6003906 11.300781 5.4003906 11.300781 C 5.2003906 11.300781 5.033724 11.232943 4.9003906 11.099609 C 4.7670573 11.032943 4.6992187 10.866276 4.6992188 10.599609 L 4.6992188 10.300781 L 3.6992188 10.099609 C 3.432552 10.032943 3.2 9.8992187 3 9.6992188 C 2.8 9.5658854 2.6992187 9.3992186 2.6992188 9.1992188 C 2.6992188 8.9992186 2.8 8.8325521 3 8.6992188 C 3.1333333 8.5658854 3.3 8.5 3.5 8.5 C 3.5666667 8.5 3.6674479 8.5329427 3.8007812 8.5996094 C 3.9341147 8.5996094 4.0329427 8.632552 4.0996094 8.6992188 L 4.5 8.9003906 C 4.6333333 8.9003906 4.7670573 8.9333333 4.9003906 9 L 5.4003906 9 L 6 9 C 6.1333333 8.9333333 6.1992186 8.7996094 6.1992188 8.5996094 C 6.1992188 8.5329427 6.166276 8.4670573 6.0996094 8.4003906 C 5.966276 8.4003906 5.8325521 8.367448 5.6992188 8.3007812 C 5.4992187 8.2341147 5.2996094 8.1992188 5.0996094 8.1992188 C 4.6329427 8.132552 4.233724 8.0007812 3.9003906 7.8007812 C 3.5670573 7.6674479 3.3325521 7.5007812 3.1992188 7.3007812 C 2.9992186 7.0341146 2.9003906 6.733724 2.9003906 6.4003906 C 2.9003906 6.0670573 2.966276 5.7996094 3.0996094 5.5996094 C 3.2996094 5.3996094 3.5341147 5.2329427 3.8007812 5.0996094 C 4.067448 5.0329427 4.3658854 4.9670573 4.6992188 4.9003906 L 4.6992188 4.5 C 4.6992188 4.3 4.7670573 4.1333333 4.9003906 4 C 5.033724 3.9333333 5.2003906 3.9003906 5.4003906 3.9003906 z M 9.5996094 10.099609 L 11.300781 10.099609 C 11.634115 10.099609 11.866667 10.167448 12 10.300781 C 12.133333 10.434115 12.199219 10.600781 12.199219 10.800781 C 12.199219 11.000781 12.133333 11.167448 12 11.300781 C 11.866667 11.434115 11.634115 11.5 11.300781 11.5 L 9.5996094 11.5 C 9.266276 11.5 9.033724 11.434115 8.9003906 11.300781 C 8.7670573 11.167448 8.6992188 11.000781 8.6992188 10.800781 C 8.6992188 10.600781 8.7670573 10.434115 8.9003906 10.300781 C 9.033724 10.167448 9.266276 10.099609 9.5996094 10.099609 z " />
</svg>

<svg xmlns="http://www.w3.org/2000/svg" width="16" height="16" version="1.2"><path d="M6 2c-1.4 0-2.1 0-2.6.3-.5.2-.9.6-1.1 1.1C2 3.9 2 4.6 2 6v4c0 1.4 0 2.1.3 2.6.2.5.6.9 1.1 1.1.5.3 1.2.3 2.6.3h4c1.4 0 2.1 0 2.6-.3.5-.2.9-.6 1.1-1.1.3-.5.3-1.2.3-2.6V6c0-1.4 0-2.1-.3-2.6-.2-.5-.6-.9-1.1-1.1C12.1 2 11.4 2 10 2zm-.6 1.9q.3 0 .5.1.2.2.2.5v.4q.4 0 .8.1t.6.3q.3.2.3.5a.68.68 0 0 1-.2.5q-.3.2-.6.2-.1 0-.3-.1-.1 0-.3-.1a.9.9 0 0 1-.4-.1q-.2-.1-.6-.1h-.2q-.2 0-.3.1-.1 0-.2.1v.2q0 .1.1.2t.4.1q.2.1.6.1a5.3 5.3 0 0 1 1.1.3q.6.2.8.5.3.3.3.9 0 .5-.2.8-.3.4-.8.6a3.6 3.6 0 0 1-.9.3v.3q0 .4-.2.5a.68.68 0 0 1-.5.2.68.68 0 0 1-.5-.2q-.2-.1-.2-.5v-.3l-1-.2q-.4-.1-.7-.4-.3-.2-.3-.5t.3-.5q.2-.2.5-.2.1 0 .3.1.2 0 .3.1l.4.2q.2 0 .4.1H6q.2-.1.2-.4 0-.1-.1-.2a.9.9 0 0 1-.4-.1q-.3-.1-.6-.1-.7-.1-1.2-.4-.5-.2-.7-.5a1.46 1.46 0 0 1-.3-.9q0-.5.2-.8.3-.3.7-.5.4-.1.9-.2v-.4q0-.3.2-.5.2-.1.5-.1m4.2 6.2h1.7q.5 0 .7.2t.2.5-.2.5-.7.2H9.6q-.5 0-.7-.2a.68.68 0 0 1-.2-.5q0-.3.2-.5t.7-.2" style="fill:#8cc162"/></svg>
